docs/logos/eqt-logo.svg

<svg width="136" height="40" viewBox="0 0 136 40" fill="none" xmlns="http://www.w3.org/2000/svg">
<g clip-path="url(#clip0_174_2039)">
<path d="M136.025 1.0177H99.601V7.54926H136.025V1.0177Z" fill="#FF6600"/>
<path d="M36.2424 1.0177H13.3656V7.54926H36.2424V1.0177Z" fill="#FF6600"/>
<path d="M36.2424 16.6722H13.3656V23.2038H36.2424V16.6722Z" fill="#FF6600"/>
<path d="M36.2424 32.4493H13.3656V38.9809H36.2424V32.4493Z" fill="#FF6600"/>
<path d="M6.46418 1.0177H0V38.9795H6.46418V1.0177Z" fill="#FF6600"/>
<path d="M121.033 14.5671H114.569V39.0026H121.033V14.5671Z" fill="#FF6600"/>
<path d="M56.8908 19.9884C56.8908 12.5536 62.8736 6.53156 70.2088 6.53156C77.5441 6.53156 83.5269 12.5767 83.5269 19.9884C83.5269 19.9884 83.5269 20.0347 83.5269 20.0579H89.991V19.9884C89.991 8.94036 81.12 0 70.2088 0C59.2976 0 50.4266 8.96352 50.4266 19.9884C50.4266 31.0133 59.2518 39.9537 70.14 39.9768V33.4453C62.8277 33.399 56.8908 27.377 56.8908 19.9884Z" fill="#FF6600"/>
<path d="M73.6165 19.0006L69.0456 23.6191L84.8654 39.6038L89.4362 34.9853L73.6165 19.0006Z" fill="#FF6600"/>
</g>
<defs>
<clipPath id="clip0_174_2039">
<rect width="136" height="40" fill="white"/>
</clipPath>
</defs>
</svg>

<svg xmlns="http://www.w3.org/2000/svg" width="136" height="40" fill="none"><g fill="#F60" clip-path="url(#a)"><path d="M136.025 1.018H99.601v6.531h36.424zm-99.783 0H13.366v6.531h22.876zm0 15.654H13.366v6.532h22.876zm0 15.778H13.366v6.53h22.876zM6.464 1.018H0V38.98h6.464zm114.569 13.549h-6.464v24.436h6.464zM56.89 19.988c0-7.434 5.984-13.456 13.319-13.456s13.318 6.045 13.318 13.456v.07h6.464v-.07C89.991 8.94 81.12 0 70.209 0S50.427 8.964 50.427 19.988c0 11.025 8.825 19.966 19.713 19.989v-6.532c-7.312-.046-13.25-6.068-13.25-13.457"/><path d="m73.617 19-4.571 4.62 15.82 15.984 4.57-4.619z"/></g><defs><clipPath id="a"><path fill="#fff" d="M0 0h136v40H0z"/></clipPath></defs></svg>
